X: 34758
T: Road To Maldon, The
R: jig
M: 6/8
K: Edorian
E2 F|:G2F E2G|F2E D2E|F3 B,3|B,3 B,2C|
D2C B,2C|D2F E2D|E3 E,3|E,3 E2F:|
G2F E2A|G2F E2D|E2F E2D|E3 E2F|
G2F E2G|F2E D2E|F3 E3|E6|

